public/assets/images/posts/2021-01-29-web-animations-intro/illustration.svg

<svg height="500" width="1441" xmlns="http://www.w3.org/2000/svg" xmlns:xlink="http://www.w3.org/1999/xlink"><defs><path id="a" d="m183.847 248h1073v5h-1073z"/><mask id="b" fill="#fff" height="5" width="1073" x="0" y="0"><use xlink:href="#a"/></mask></defs><g fill="none" fill-rule="evenodd" transform="translate(.153)"><path d="m0 0h1440v500h-1440z" fill="#fff"/><g stroke="#fff"><circle cx="324.847" cy="250" fill="#364b72" r="100" stroke-width="10"/><circle cx="482.847" cy="250" fill="#305181" r="100" stroke-width="10"/><circle cx="640.847" cy="250" fill="#245c9e" r="100" stroke-width="10"/><circle cx="798.847" cy="250" fill="#1867bb" r="100" stroke-width="10"/><circle cx="956.847" cy="250" fill="#0c72d8" r="100" stroke-width="10"/><circle cx="1114.847" cy="250" fill="#007df6" r="100" stroke-width="10"/></g><path d="m149.347 240.5h19v19h-19z" fill="#fff" stroke="#f37a78" stroke-width="5" transform="matrix(.70710678 .70710678 -.70710678 .70710678 223.301904 -39.098486)"/><path d="m1271.347 240.5h19v19h-19z" fill="#fff" stroke="#f37a78" stroke-width="5" transform="matrix(.70710678 .70710678 -.70710678 .70710678 551.928096 -832.472295)"/><use mask="url(#b)" stroke="#f37a78" stroke-dasharray="5 14" stroke-width="10" xlink:href="#a"/></g></svg>

<svg width="1441" height="500" xmlns="http://www.w3.org/2000/svg" xmlns:xlink="http://www.w3.org/1999/xlink"><defs><path id="b" d="M0 0H1440V500H0z"/><path id="a" d="M183.847 248H1256.847V253H183.847z"/><mask id="c" x="0" y="0" width="1073" height="5" fill="#fff"><use xlink:href="#a"/></mask></defs><g transform="translate(.153)" fill="none" fill-rule="evenodd"><use fill="#FFF" xlink:href="#b"/><circle stroke="#FFF" stroke-width="10" fill="#364B72" cx="324.847" cy="250" r="100"/><circle stroke="#FFF" stroke-width="10" fill="#305181" cx="482.847" cy="250" r="100"/><circle stroke="#FFF" stroke-width="10" fill="#245C9E" cx="640.847" cy="250" r="100"/><circle stroke="#FFF" stroke-width="10" fill="#1867BB" cx="798.847" cy="250" r="100"/><circle stroke="#FFF" stroke-width="10" fill="#0C72D8" cx="956.847" cy="250" r="100"/><circle stroke="#FFF" stroke-width="10" fill="#007DF6" cx="1114.847" cy="250" r="100"/><path stroke="#F37A78" stroke-width="5" fill="#FFF" transform="rotate(45 158.847 250)" d="M149.347 240.5H168.347V259.5H149.347z"/><path stroke="#F37A78" stroke-width="5" fill="#FFF" transform="rotate(45 1280.847 250)" d="M1271.347 240.5H1290.347V259.5H1271.347z"/><use stroke="#F37A78" mask="url(#c)" stroke-width="10" stroke-dasharray="5,14" xlink:href="#a"/></g></svg>
